svgs/solid/diagram-previous.svg

<svg xmlns="http://www.w3.org/2000/svg" viewBox="0 0 512 512"><!--! Font Awesome Pro 6.1.2 by @fontawesome - https://fontawesome.com License - https://fontawesome.com/license (Commercial License) Copyright 2022 Fonticons, Inc. --><path d="M448 288C483.3 288 512 316.7 512 352V416C512 451.3 483.3 480 448 480H64C28.65 480 0 451.3 0 416V352C0 316.7 28.65 288 64 288H232V224H185.9C164.6 224 153.9 198.1 168.1 183L239 112.1C248.4 103.6 263.6 103.6 272.1 112.1L343 183C358.1 198.1 347.4 224 326.1 224H280V288H448zM64 352V416H448V352H64zM399 224C404.6 205.6 401 184.4 384.1 168.4L295.6 79.03C273.7 57.16 238.3 57.16 216.4 79.03L127 168.4C110.1 184.4 107.4 205.6 112.1 224H64C28.65 224 .0003 195.3 .0003 160V96C.0003 60.65 28.65 32 64 32H448C483.3 32 512 60.65 512 96V160C512 195.3 483.3 224 448 224H399z"/></svg>

<svg xmlns="http://www.w3.org/2000/svg" viewBox="0 0 512 512"><!--! Font Awesome Pro 6.2.0 by @fontawesome - https://fontawesome.com License - https://fontawesome.com/license (Commercial License) Copyright 2022 Fonticons, Inc. --><path d="M448 352L64 352v64l384 0V352zm0-64c35.3 0 64 28.7 64 64v64c0 35.3-28.7 64-64 64H64c-35.3 0-64-28.7-64-64V352c0-35.3 28.7-64 64-64H232V224l-46.1 0c-21.4 0-32.1-25.9-17-41L239 113c9.4-9.4 24.6-9.4 33.9 0L343 183c15.1 15.1 4.4 41-17 41L280 224v64H448zM365.7 160.4L295.6 90.3c-21.9-21.9-57.3-21.9-79.2 0l-70.1 70.1c-18.4 18.4-20.4 43.7-11 63.6L64 224c-35.3 0-64-28.7-64-64V96C0 60.7 28.7 32 64 32l384 0c35.3 0 64 28.7 64 64v64c0 35.3-28.7 64-64 64H376.7c9.4-19.9 7.4-45.2-11-63.6z"/></svg>
